X: 3158
T: EASTER ELCHIES
Q: "Reel."
R: Reel.
%R: reel
B: James Kerr "Merry Melodies" v.3 p.19 #158
Z: 2016 John Chambers <jc:trillian.mit.edu>
M: C
L: 1/8
K: F
uC |\
F2(Fd) cAGA | F2(FA) cfag |\
fecA GFEG | FCDE F3 :|\
a |\
(fc) (f/g/a) gdde | (fc) (f/g/a) cfaf |
gfaf gfdg | fcde f3a |\
(fc) (f/g/a) gdde | fadf cfAc |\
BGAF GABd | FCDE F3 |]

%%sep 1 1 500
%%sep 1 1 500

